_assets/img/icons/user-interface-link.svg

<svg xmlns="http://www.w3.org/2000/svg" xmlns:xlink="http://www.w3.org/1999/xlink" width="24" height="24" viewBox="0 0 24 24">
  <defs>
    <path id="user-interface-a" d="M20,12 L20,18 C20,19.1045695 19.1045695,20 18,20 L6,20 C4.8954305,20 4,19.1045695 4,18 L4,6 C4,4.8954305 4.8954305,4 6,4 L13,4 C13.5522847,4 14,4.44771525 14,5 C14,5.55228475 13.5522847,6 13,6 L6,6 L6,18 L18,18 L18,12 C18,11.4477153 18.4477153,11 19,11 C19.5522847,11 20,11.4477153 20,12 Z M13.25,10.75 L16,12 L13.25,13.25 L12,16 L10.75,13.25 L8,12 L10.75,10.75 L12,8 L13.25,10.75 Z M18.9375,6.0625 L21,7 L18.9375,7.9375 L18,10 L17.0625,7.9375 L15,7 L17.0625,6.0625 L18,4 L18.9375,6.0625 Z"/>
  </defs>
  <g fill="none" fill-rule="evenodd">
    <mask id="user-interface-b" fill="#fff">
      <use xlink:href="#user-interface-a"/>
    </mask>
    <use fill="#0060DF" fill-rule="nonzero" xlink:href="#user-interface-a"/>
    <g fill="#0060DF" fill-rule="nonzero" mask="url(#user-interface-b)">
      <rect width="24" height="24"/>
    </g>
  </g>
</svg>

<svg id="Layer_1" data-name="Layer 1" xmlns="http://www.w3.org/2000/svg" width="24" height="24" viewBox="0 0 24 24">
  <title>user-interface-link</title>
  <path d="M20,12v6a2,2,0,0,1-2,2H6a2,2,0,0,1-2-2V6A2,2,0,0,1,6,4h7a1,1,0,0,1,0,2H6V18H18V12a1,1,0,0,1,2,0Zm-6.75-1.25L16,12l-2.75,1.25L12,16l-1.25-2.75L8,12l2.75-1.25L12,8Zm5.69-4.69L21,7l-2.06.94L18,10l-.94-2.06L15,7l2.06-.94L18,4Z" fill="#0060df"/>
</svg>
